X: 2
T: Paddy Fahy's
M: 6/8
L: 1/8
R: jig
K: Gmaj
|: D |\
GBD GB/c/d | geg dBG | DFA cAD | BAG FDB |
G2 D GBd | ge/f/g dBG | DFA cAF | AGF G2 :|
|: d |\
gbg dBG | DFA cBA | GBd gfg | faf dfa |
g/a/bg bag | faf dfa | gfd cAF | AGF G2 :|
